img/site.svg

<svg width="120" height="120" viewBox="0 0 120 120" fill="none" xmlns="http://www.w3.org/2000/svg">
<path d="M105.857 98.692C105.884 98.6518 105.924 98.6116 105.951 98.5714C114.723 88.1384 120 74.692 120 60C120 45.308 114.723 31.8616 105.964 21.4286C105.937 21.3884 105.897 21.3616 105.871 21.3214C105.723 21.1473 105.589 20.9866 105.442 20.8259C105.388 20.7589 105.335 20.7054 105.281 20.6384L104.732 20.0089L104.719 19.9955C104.518 19.7679 104.304 19.5402 104.103 19.3125L104.089 19.2991C103.661 18.8438 103.232 18.3884 102.79 17.9464L102.777 17.933L102.134 17.2902L102.094 17.25C101.893 17.0491 101.692 16.8616 101.491 16.6741C101.424 16.6071 101.357 16.5402 101.277 16.4732C101.143 16.3393 101.009 16.2187 100.875 16.0982C100.835 16.058 100.781 16.0179 100.741 15.9643C90.0536 6.05357 75.7366 0 60 0C44.2634 0 29.9464 6.05357 19.2455 15.9643C19.2054 16.0045 19.1518 16.0446 19.1116 16.0982C18.9777 16.2187 18.8437 16.3527 18.7098 16.4866C18.6429 16.5536 18.5759 16.6205 18.4955 16.6875C18.2946 16.875 18.0938 17.0759 17.8929 17.2634L17.8527 17.3036L17.2098 17.9464L17.1964 17.9598C16.7545 18.4018 16.3259 18.8571 15.8973 19.3125L15.8839 19.3259C15.6696 19.5536 15.4687 19.7812 15.2679 20.0089L15.2545 20.0223C15.067 20.2232 14.8795 20.4375 14.7054 20.6518C14.6518 20.7187 14.5982 20.7723 14.5446 20.8393C14.3973 21 14.2634 21.1741 14.1161 21.3348C14.0893 21.375 14.0491 21.4018 14.0223 21.442C5.27678 31.8616 0 45.308 0 60C0 74.692 5.27679 88.1384 14.0357 98.5714C14.0625 98.6116 14.1027 98.6518 14.1295 98.692L14.5446 99.1875C14.5982 99.2545 14.6518 99.308 14.7054 99.375L15.2545 100.004C15.2545 100.018 15.2679 100.018 15.2679 100.031C15.4687 100.259 15.6696 100.487 15.8839 100.701L15.8973 100.714C16.3259 101.17 16.7545 101.625 17.183 102.067L17.1964 102.08C17.4107 102.295 17.6116 102.509 17.8259 102.71L17.8661 102.75C18.308 103.192 18.7634 103.621 19.2187 104.036C29.9464 113.946 44.2634 120 60 120C75.7366 120 90.0536 113.946 100.754 104.036C101.211 103.618 101.657 103.189 102.094 102.75L102.134 102.71C102.348 102.496 102.562 102.295 102.763 102.08L102.777 102.067C103.219 101.625 103.647 101.17 104.062 100.714L104.076 100.701C104.277 100.473 104.491 100.259 104.692 100.031C104.692 100.018 104.705 100.018 104.705 100.004C104.893 99.8036 105.08 99.5893 105.254 99.375C105.308 99.308 105.362 99.2545 105.415 99.1875C105.567 99.026 105.714 98.8608 105.857 98.692ZM106.406 79.5937C104.558 83.9598 102.121 88.0045 99.1473 91.6741C95.7988 88.7802 92.1378 86.2691 88.2321 84.1875C89.7857 77.9062 90.75 71.0089 91.0045 63.75H110.223C109.821 69.2277 108.536 74.5446 106.406 79.5937ZM110.223 56.25H91.0045C90.75 48.9911 89.7857 42.0937 88.2321 35.8125C92.1562 33.7232 95.8125 31.2054 99.1473 28.3259C105.61 36.2809 109.476 46.0277 110.223 56.25ZM79.5937 13.5937C84.9107 15.8437 89.7455 18.9509 94.0045 22.8616C91.5304 24.9682 88.8673 26.8422 86.0491 28.4598C83.9464 22.433 81.2545 17.1964 78.1205 13.0045C78.6161 13.192 79.1116 13.3929 79.5937 13.5937ZM67.4598 107.424C66.2277 108.388 64.9955 109.125 63.75 109.621V84.7768C69.0642 85.1475 74.2901 86.3309 79.2455 88.2857C78.1339 91.5804 76.8482 94.6205 75.3616 97.3661C73.0312 101.705 70.2991 105.174 67.4598 107.424ZM75.3616 22.6339C76.8348 25.3929 78.1339 28.433 79.2455 31.7143C74.2901 33.6691 69.0642 34.8525 63.75 35.2232V10.3929C64.9821 10.8884 66.2277 11.6116 67.4598 12.5893C70.2991 14.8259 73.0312 18.2946 75.3616 22.6339ZM63.75 77.2634V63.75H83.5045C83.2902 69.6696 82.5536 75.4152 81.3214 80.8661L81.2813 81.0268C75.6607 78.8954 69.7501 77.6266 63.75 77.2634ZM63.75 56.25V42.7366C69.8839 42.3616 75.7768 41.0625 81.2813 38.9732L81.3214 39.1339C82.5536 44.5848 83.2902 50.317 83.5045 56.25H63.75ZM56.25 63.75V77.2634C50.1161 77.6384 44.2232 78.9375 38.7187 81.0268L38.6786 80.8661C37.4464 75.4152 36.7098 69.683 36.4955 63.75H56.25ZM36.4955 56.25C36.7098 50.3304 37.4464 44.5848 38.6786 39.1339L38.7187 38.9732C44.2232 41.0625 50.1027 42.3616 56.25 42.7366V56.25H36.4955ZM56.25 84.7768V109.607C55.0179 109.112 53.7723 108.388 52.5402 107.411C49.7009 105.174 46.9554 101.692 44.625 97.3527C43.1518 94.5938 41.8527 91.5536 40.7411 88.2723C45.7232 86.317 50.9062 85.1518 56.25 84.7768ZM56.25 35.2232C50.9358 34.8525 45.7099 33.6691 40.7545 31.7143C41.8661 28.4196 43.1518 25.3795 44.6384 22.6339C46.9687 18.2946 49.7009 14.8125 52.5536 12.5759C53.7857 11.6116 55.0179 10.875 56.2634 10.3795V35.2232H56.25ZM40.4063 13.5937C40.9018 13.3929 41.3839 13.192 41.8795 13.0045C38.7455 17.1964 36.0536 22.433 33.9509 28.4598C31.1384 26.8527 28.4732 24.9777 25.9955 22.8616C30.2545 18.9509 35.0893 15.8437 40.4063 13.5937ZM13.5937 40.4063C15.442 36.0402 17.8795 31.9955 20.8527 28.3259C24.1875 31.2054 27.8438 33.7232 31.7679 35.8125C30.2143 42.0937 29.25 48.9911 28.9955 56.25H9.77679C10.1786 50.7723 11.4643 45.4554 13.5937 40.4063ZM9.77679 63.75H28.9955C29.25 71.0089 30.2143 77.9062 31.7679 84.1875C27.8622 86.2691 24.2012 88.7802 20.8527 91.6741C14.3897 83.7191 10.5237 73.9723 9.77679 63.75ZM40.4063 106.406C35.0893 104.156 30.2545 101.049 25.9955 97.1384C28.4732 95.0223 31.1384 93.1607 33.9509 91.5402C36.0536 97.567 38.7455 102.804 41.8795 106.996C41.3839 106.808 40.8884 106.607 40.4063 106.406ZM79.5937 106.406C79.0982 106.607 78.6161 106.808 78.1205 106.996C81.2545 102.804 83.9464 97.567 86.0491 91.5402C88.8616 93.1473 91.5268 95.0223 94.0045 97.1384C89.7691 101.033 84.8942 104.168 79.5937 106.406Z" fill="white"/>
</svg>

<svg xmlns="http://www.w3.org/2000/svg" width="120" height="120" fill="none"><path fill="#fff" d="M105.857 98.692c.027-.04.067-.08.094-.12C114.723 88.137 120 74.691 120 60c0-14.692-5.277-28.138-14.036-38.571-.027-.04-.067-.067-.093-.108-.148-.174-.282-.334-.429-.495-.054-.067-.107-.12-.161-.188l-.549-.63-.013-.012c-.201-.228-.415-.456-.616-.683l-.014-.014c-.428-.455-.857-.91-1.299-1.353l-.013-.013-.643-.643-.04-.04c-.201-.2-.402-.388-.603-.576a3.227 3.227 0 0 0-.214-.2 10.282 10.282 0 0 0-.402-.376c-.04-.04-.094-.08-.134-.134C90.054 6.054 75.737 0 60 0 44.263 0 29.946 6.054 19.245 15.964c-.04.04-.093.08-.133.134-.134.12-.268.255-.402.389a3.115 3.115 0 0 1-.215.2c-.2.188-.401.389-.602.576l-.04.04-.643.643-.014.014c-.442.442-.87.897-1.299 1.352l-.013.014c-.214.228-.415.455-.616.683l-.014.013c-.187.201-.374.416-.549.63-.053.067-.107.12-.16.187-.148.161-.282.335-.429.496-.027.04-.067.067-.094.107C5.277 31.862 0 45.308 0 60s5.277 28.138 14.036 38.571c.027.04.067.08.094.121l.415.496c.053.066.107.12.16.187l.55.629c0 .014.013.014.013.027.2.228.402.456.616.67l.013.013c.429.456.857.911 1.286 1.353l.013.013c.215.215.416.429.63.63l.04.04c.442.442.897.871 1.353 1.286C29.946 113.946 44.263 120 60 120c15.737 0 30.054-6.054 40.754-15.964.457-.418.903-.847 1.34-1.286l.04-.04c.214-.214.428-.415.629-.63l.014-.013c.442-.442.87-.897 1.285-1.353l.014-.013c.201-.228.415-.442.616-.67 0-.013.013-.013.013-.027.188-.2.375-.415.549-.629.054-.067.108-.12.161-.188.152-.161.299-.326.442-.495Zm.549-19.098a50.268 50.268 0 0 1-7.259 12.08 59.469 59.469 0 0 0-10.915-7.487c1.554-6.28 2.518-13.178 2.772-20.437h19.219a50.061 50.061 0 0 1-3.817 15.844Zm3.817-23.344H91.004c-.254-7.259-1.218-14.156-2.772-20.438a59.472 59.472 0 0 0 10.915-7.486 50.073 50.073 0 0 1 11.076 27.924Zm-30.63-42.656a50.065 50.065 0 0 1 14.411 9.268 52.865 52.865 0 0 1-7.955 5.598c-2.103-6.027-4.795-11.264-7.928-15.456.495.188.99.389 1.473.59Zm-12.133 93.83c-1.232.964-2.464 1.701-3.71 2.197V84.777a52.108 52.108 0 0 1 15.496 3.509c-1.112 3.294-2.398 6.335-3.884 9.08-2.33 4.339-5.063 7.808-7.902 10.058Zm7.902-84.79c1.473 2.759 2.772 5.799 3.884 9.08a52.108 52.108 0 0 1-15.496 3.51V10.392c1.232.495 2.478 1.219 3.71 2.196 2.84 2.237 5.571 5.706 7.902 10.045ZM63.75 77.264V63.75h19.754c-.214 5.92-.95 11.665-2.183 17.116l-.04.16a59.6 59.6 0 0 0-17.531-3.763Zm0-21.014V42.737a59.6 59.6 0 0 0 17.531-3.764l.04.16c1.233 5.452 1.97 11.184 2.183 17.117H63.75Zm-7.5 7.5v13.513a59.6 59.6 0 0 0-17.531 3.764l-.04-.16c-1.233-5.452-1.97-11.184-2.184-17.117H56.25Zm-19.755-7.5c.215-5.92.951-11.665 2.184-17.116l.04-.16a59.508 59.508 0 0 0 17.531 3.763V56.25H36.495ZM56.25 84.777v24.83c-1.232-.495-2.478-1.219-3.71-2.196-2.84-2.237-5.585-5.719-7.915-10.058-1.473-2.76-2.772-5.8-3.884-9.08a52.272 52.272 0 0 1 15.509-3.496Zm0-49.554a52.108 52.108 0 0 1-15.495-3.509c1.111-3.294 2.397-6.334 3.883-9.08 2.33-4.34 5.063-7.822 7.916-10.058 1.232-.964 2.464-1.701 3.71-2.197v24.844h-.014Zm-15.844-21.63c.496-.2.978-.401 1.474-.588-3.135 4.191-5.826 9.428-7.93 15.455a51.914 51.914 0 0 1-7.955-5.598 50.065 50.065 0 0 1 14.411-9.268ZM13.594 40.407a50.295 50.295 0 0 1 7.259-12.08 59.472 59.472 0 0 0 10.915 7.486c-1.554 6.282-2.518 13.18-2.773 20.438H9.777a50.072 50.072 0 0 1 3.817-15.844ZM9.777 63.75h19.219c.254 7.259 1.218 14.156 2.772 20.438a59.469 59.469 0 0 0-10.915 7.486A50.07 50.07 0 0 1 9.777 63.75Zm30.63 42.656a50.067 50.067 0 0 1-14.411-9.268 52.86 52.86 0 0 1 7.955-5.598c2.103 6.027 4.794 11.264 7.928 15.456a49.131 49.131 0 0 1-1.473-.59Zm39.187 0c-.496.201-.978.402-1.473.59 3.133-4.192 5.825-9.429 7.928-15.456a51.914 51.914 0 0 1 7.955 5.598 50.055 50.055 0 0 1-14.41 9.268Z"/></svg>
